svg/fluentui-system-icons/ic_fluent_person_pill_20_filled.svg

<svg width="20" height="20" viewBox="0 0 20 20" fill="none" xmlns="http://www.w3.org/2000/svg">
<path d="M10 2C7.79086 2 6 3.79086 6 6C6 8.20914 7.79086 10 10 10C12.2091 10 14 8.20914 14 6C14 3.79086 12.2091 2 10 2ZM12.8789 11L9.93932 13.9396C8.84824 15.0307 8.59894 16.6448 9.19143 17.9748C7.64688 17.8772 6.22856 17.4939 5.13499 16.7966C3.83281 15.9663 3 14.6912 3 13C3 11.8869 3.90315 11 5.00873 11H12.8789ZM18.3535 10.6467C17.3298 9.62298 15.6701 9.62298 14.6464 10.6467L10.6464 14.6467C9.62274 15.6704 9.62274 17.3301 10.6464 18.3538C11.6701 19.3775 13.3298 19.3775 14.3535 18.3538L18.3535 14.3538C19.3772 13.3301 19.3772 11.6704 18.3535 10.6467ZM15.3535 11.3538C15.9867 10.7206 17.0133 10.7206 17.6464 11.3538C18.2796 11.9869 18.2796 13.0135 17.6464 13.6467L16 15.2931L13.7071 13.0002L15.3535 11.3538ZM13.8536 15.6464C14.0488 15.8417 14.0488 16.1583 13.8536 16.3536L12.8536 17.3536C12.6583 17.5488 12.3417 17.5488 12.1464 17.3536C11.9512 17.1583 11.9512 16.8417 12.1464 16.6464L13.1464 15.6464C13.3417 15.4512 13.6583 15.4512 13.8536 15.6464Z" fill="#212121"/>
</svg>

<svg xmlns="http://www.w3.org/2000/svg" width="20" height="20"><path d="M10 2a4 4 0 1 0 0 8 4 4 0 0 0 0-8Zm2.879 9-2.94 2.94a3.623 3.623 0 0 0-.748 4.035c-1.544-.098-2.962-.481-4.056-1.178C3.833 15.967 3 14.69 3 13c0-1.113.903-2 2.009-2h7.87Zm5.475-.353a2.621 2.621 0 0 0-3.708 0l-4 4a2.621 2.621 0 0 0 3.707 3.707l4-4a2.621 2.621 0 0 0 0-3.707Zm-3 .707a1.621 1.621 0 1 1 2.292 2.293L16 15.293 13.707 13l1.646-1.646Zm-1.5 4.292a.5.5 0 0 1 0 .708l-1 1a.5.5 0 0 1-.708-.708l1-1a.5.5 0 0 1 .708 0Z"/></svg>
